SVG_Azure_All/Confluent Organisation.svg

<?xml version="1.0" encoding="UTF-8" standalone="no"?>
<!-- Generated by Microsoft Visio, SVG Export Confluent Organisation.svg Page-1 -->

<svg
   xmlns:dc="http://purl.org/dc/elements/1.1/"
   xmlns:cc="http://creativecommons.org/ns#"
   xmlns:rdf="http://www.w3.org/1999/02/22-rdf-syntax-ns#"
   xmlns:svg="http://www.w3.org/2000/svg"
   xmlns="http://www.w3.org/2000/svg"
   xmlns:sodipodi="http://sodipodi.sourceforge.net/DTD/sodipodi-0.dtd"
   xmlns:inkscape="http://www.inkscape.org/namespaces/inkscape"
   width="0.78739941in"
   height="0.78739941in"
   viewBox="0 0 56.692756 56.692898"
   xml:space="preserve"
   class="st4"
   version="1.1"
   id="svg29"
   sodipodi:docname="Confluent Organisation.svg"
   style="font-size:12px;overflow:visible;color-interpolation-filters:sRGB;fill:none;fill-rule:evenodd;stroke-linecap:square;stroke-miterlimit:3"
   inkscape:version="0.92.5 (2060ec1f9f, 2020-04-08)"><metadata
   id="metadata35"><rdf:RDF><cc:Work
       rdf:about=""><dc:format>image/svg+xml</dc:format><dc:type
         rdf:resource="http://purl.org/dc/dcmitype/StillImage" /></cc:Work></rdf:RDF></metadata><defs
   id="defs33" /><sodipodi:namedview
   pagecolor="#ffffff"
   bordercolor="#666666"
   borderopacity="1"
   objecttolerance="10"
   gridtolerance="10"
   guidetolerance="10"
   inkscape:pageopacity="0"
   inkscape:pageshadow="2"
   inkscape:window-width="640"
   inkscape:window-height="480"
   id="namedview31"
   showgrid="false"
   inkscape:zoom="1.8365233"
   inkscape:cx="37.795184"
   inkscape:cy="18.897555"
   inkscape:window-x="0"
   inkscape:window-y="0"
   inkscape:window-maximized="0"
   inkscape:current-layer="svg29" />
	<style
   type="text/css"
   id="style2">
	<![CDATA[
		.st1 {fill:#b4e1e4;stroke:none;stroke-width:2.52516}
		.st2 {fill:#0074a3;stroke:none;stroke-width:2.52516}
		.st3 {fill:#ffffff;stroke:none;stroke-width:2.52516}
		.st4 {fill:none;fill-rule:evenodd;font-size:12px;overflow:visible;stroke-linecap:square;stroke-miterlimit:3}
	]]>
	</style>

	<g
   id="g27"
   transform="translate(-5.6693772,-5.6693014)">
		<title
   id="title4">Page-1</title>
		<g
   id="group6230-1"
   transform="translate(5.66929,-34.0157)">
			<title
   id="title6">Confluent Organisation</title>
			<g
   id="group6231-2">
				<title
   id="title8">g10</title>
				<g
   id="shape6232-3">
					<title
   id="title10">path4</title>
					<rect
   x="0"
   y="39.685001"
   width="56.692902"
   height="56.692902"
   class="st1"
   id="rect12"
   style="fill:#b4e1e4;stroke:none;stroke-width:2.52516007" />
				</g>
				<g
   id="shape6233-5"
   transform="translate(7.77165,-7.62992)">
					<title
   id="title15">path6</title>
					<path
   d="M 20.3,96.38 A 20.3031,20.3031 -180 1 0 0,76.07 20.3031,20.3031 -180 0 0 20.3,96.38 Z"
   class="st2"
   id="path17"
   inkscape:connector-curvature="0"
   style="fill:#0074a3;stroke:none;stroke-width:2.52516007" />
				</g>
				<g
   id="shape6234-7"
   transform="translate(15.6446,-21.9921)">
					<title
   id="title20">path8</title>
					<path
   d="m 12.43,83.69 a 2.3622,2.3622 -180 0 0 -2.36,2.37 v 7.96 a 2.3622,2.3622 -180 1 0 4.72,0 v -7.98 a 2.3622,2.3622 -180 0 0 -2.36,-2.35 z m 3.02,2.97 a 2.365,2.365 0 1 1 4.73,0 v 5.97 a 2.365,2.365 0 1 1 -4.73,0 z m 5.39,5.3 a 2.3622,2.3622 0 1 1 2.36,2.36 2.3622,2.3622 0 0 1 -2.36,-2.36 z M 4.69,90.02 a 2.365,2.365 0 1 1 4.73,0 v 2.65 a 2.365,2.365 0 1 1 -4.73,0 z m -3.02,-0.3 a 2.3622,2.3622 -180 1 0 2.36,2.36 2.3622,2.3622 -180 0 0 -2.36,-2.4 z"
   class="st3"
   id="path22"
   inkscape:connector-curvature="0"
   style="fill:#ffffff;stroke:none;stroke-width:2.52516007" />
				</g>
			</g>
		</g>
	</g>
</svg>

<?xml version="1.0" encoding="UTF-8" standalone="no"?>
<!DOCTYPE svg PUBLIC "-//W3C//DTD SVG 1.1//EN" "http://www.w3.org/Graphics/SVG/1.1/DTD/svg11.dtd">
<!-- Generated by Microsoft Visio, SVG Export Confluent Organisation.svg Page-1 -->
<svg xmlns="http://www.w3.org/2000/svg" xmlns:xlink="http://www.w3.org/1999/xlink" xmlns:ev="http://www.w3.org/2001/xml-events"
		width="0.944882in" height="1.33858in" viewBox="0 0 68.0315 96.378" xml:space="preserve" color-interpolation-filters="sRGB"
		class="st4">
	<style type="text/css">
	<![CDATA[
		.st1 {fill:#b4e1e4;stroke:none;stroke-width:2.52516}
		.st2 {fill:#0074a3;stroke:none;stroke-width:2.52516}
		.st3 {fill:#ffffff;stroke:none;stroke-width:2.52516}
		.st4 {fill:none;fill-rule:evenodd;font-size:12px;overflow:visible;stroke-linecap:square;stroke-miterlimit:3}
	]]>
	</style>

	<g>
		<title>Page-1</title>
		<g id="group6062-1" transform="translate(5.66929,-34.0157)">
			<title>Confluent Organisation</title>
			<g id="group6063-2">
				<title>g10</title>
				<g id="shape6064-3">
					<title>path4</title>
					<rect x="0" y="39.685" width="56.6929" height="56.6929" class="st1"/>
				</g>
				<g id="shape6065-5" transform="translate(7.77165,-7.62992)">
					<title>path6</title>
					<path d="M20.3 96.38 A20.3031 20.3031 -180 1 0 0 76.07 A20.3031 20.3031 -180 0 0 20.3 96.38 Z" class="st2"/>
				</g>
				<g id="shape6066-7" transform="translate(15.6446,-21.9921)">
					<title>path8</title>
					<path d="M12.43 83.69 A2.3622 2.3622 -180 0 0 10.07 86.06 L10.07 94.02 A2.3622 2.3622 -180 1 0 14.79 94.02 L14.79
								 86.04 A2.3622 2.3622 -180 0 0 12.43 83.69 ZM15.45 86.66 A2.3622 2.3622 0 1 1 20.18 86.66 L20.18
								 92.63 A2.3622 2.3622 0 1 1 15.45 92.63 L15.45 86.66 ZM20.84 91.96 A2.3622 2.3622 0 1 1 23.2 94.32
								 A2.3622 2.3622 0 0 1 20.84 91.96 ZM4.69 90.02 A2.3622 2.3622 0 1 1 9.42 90.02 L9.42 92.67 A2.3622
								 2.3622 0 1 1 4.69 92.67 L4.69 90.02 ZM1.67 89.72 A2.3622 2.3622 -180 1 0 4.03 92.08 A2.3622 2.3622
								 -180 0 0 1.67 89.68 L1.67 89.72 Z" class="st3"/>
				</g>
			</g>
		</g>
	</g>
</svg>
